X:1
T:Title
%%score { 1 | 2 }
L:1/8
M:3/4
K:F
V:1 treble nm="Grand Piano"
V:2 bass 
V:1
 z2 z2[Q:1/4=100] A>G | F2 C2 F>A | [FA]2 [EG]2 [EG]>[FA] | [GB]2 [GB]2 [FA]>[EG] |[M:2/4] A4 | %5
[M:1/4] A>B |[M:3/4] c2 A2 [DG]>[DF] | [DG]2 [DF]2 [DF]>[^CFG] | [CFA]>[CGB] [CFA]2 [B,EG]2 | %9
[M:2/4] [A,F]4 |[M:1/4] [CFA]>[CGB] |[M:3/4] [FAc]2 [FAc]2 [FBd]>[FBd] | [FAc]2 A2 A>A | %13
 A2 F2 G>A |[M:2/4] [EG]4 |[M:1/4] A>B |[M:3/4] c2 A2 [DG]>[DF] | [DG]2 [DF]2 [DF]>[^CFG] | %18
 [CFA]>[CGB] [CFA]2 [B,EG]2 |[M:6/4] .[A,F]6 z6 |] %20
V:2
 z2 z2 [F,CF]>[F,B,] | [F,A,C]2 [F,A,]2 [F,A,C]>[F,CF] | [C,C]2 [C,C]2 [C,C]>[C,C] | %3
 [C,C]2 [C,C]2 [C,C]>[C,C] |[M:2/4] [F,CF]4 |[M:1/4] [F,CF]>[F,G,F] | %6
[M:3/4] [F,A,F]2 [F,CF]2 [B,,B,]>[B,,B,] | [B,,B,]2 [B,,B,]2 B,,>B,, | C,>C, C,2 C,2 |[M:2/4] F,4 | %10
[M:1/4] F,>F, |[M:3/4] F,2 F,2 B,>B, | F,2 [F,CF]2 [F,CF]>[F,CF] | [F,CF]2 [A,C]2 [G,CE]>[F,CF] | %14
[M:2/4] [C,C]4 |[M:1/4] [F,CF]>[F,G,F] |[M:3/4] [F,A,F]2 [F,CF]2 [B,,B,]>[B,,B,] | %17
 [B,,B,]2 [B,,B,]2 B,,>B,, | C,>C, C,2 C,2 |[M:6/4] .F,6 z6 |] %20

